usr/share/icons/biglinux-icons-material/scalable/devices/bluetooth.svg

<?xml version="1.0" encoding="UTF-8" standalone="no"?>
<svg
   width="24"
   height="24"
   version="1"
   id="svg31668"
   sodipodi:docname="preferences-system-bluetooth.svg"
   inkscape:version="1.2.2 (b0a8486541, 2022-12-01)"
   xml:space="preserve"
   xmlns:inkscape="http://www.inkscape.org/namespaces/inkscape"
   xmlns:sodipodi="http://sodipodi.sourceforge.net/DTD/sodipodi-0.dtd"
   xmlns="http://www.w3.org/2000/svg"
   xmlns:svg="http://www.w3.org/2000/svg"><defs
     id="defs31672"><radialGradient
       id="paint0_radial_29_149"
       cx="0"
       cy="0"
       r="1"
       gradientUnits="userSpaceOnUse"
       gradientTransform="matrix(0,150,-150,0,-278.33746,-123.84153)"><stop
         stop-color="#80D2FF"
         id="stop17930" /><stop
         offset="1"
         stop-color="#2991C9"
         id="stop17932"
         style="stop-color:#002a43;stop-opacity:1;" /></radialGradient><radialGradient
       id="paint0_radial_29_23"
       cx="0"
       cy="0"
       r="1"
       gradientUnits="userSpaceOnUse"
       gradientTransform="matrix(0,22,-22,0,12,1)"><stop
         stop-color="#8FC8FF"
         id="stop5919" /><stop
         offset="1"
         stop-color="#0056A8"
         id="stop5921" /></radialGradient></defs><sodipodi:namedview
     id="namedview31670"
     pagecolor="#ffffff"
     bordercolor="#000000"
     borderopacity="0.25"
     inkscape:showpageshadow="2"
     inkscape:pageopacity="0.0"
     inkscape:pagecheckerboard="0"
     inkscape:deskcolor="#d1d1d1"
     showgrid="false"
     inkscape:zoom="4.8282135"
     inkscape:cx="22.886312"
     inkscape:cy="47.533109"
     inkscape:window-width="2560"
     inkscape:window-height="1000"
     inkscape:window-x="1680"
     inkscape:window-y="0"
     inkscape:window-maximized="1"
     inkscape:current-layer="svg31668" /><g
     style="fill:none"
     id="g5934"
     transform="translate(-1.2353586e-5,1.4866998e-5)"><path
       fill-rule="evenodd"
       clip-rule="evenodd"
       d="M 9.59604,1.11359 C 9.71588,1.11486 9.83043,1.0996 9.93969,1.06779 11.3755,0.973736 12.8111,0.977551 14.2467,1.07924 c 1.3017,0.10142 2.5618,0.38384 3.7802,0.84726 2.0256,0.83394 3.4117,2.28039 4.1581,4.33935 0.4269,1.23964 0.6789,2.51436 0.7561,3.82415 0.1067,1.6447 0.0685,3.2858 -0.1146,4.9233 -0.137,1.1509 -0.4349,2.2577 -0.8935,3.3203 -0.8506,1.8425 -2.229,3.1134 -4.1352,3.8127 -1.5447,0.5219 -3.1331,0.7967 -4.7653,0.8243 C 11.1966,23.0661 9.37913,22.9287 7.57997,22.5585 4.26839,21.8208 2.22559,19.8018 1.45158,16.5017 1.12311,15.0161 0.974199,13.5124 1.00483,11.9906 0.968176,10.3724 1.14,8.77709 1.52031,7.20471 2.33171,4.11908 4.2905,2.20701 7.39669,1.46852 8.12048,1.29157 8.8536,1.17326 9.59604,1.11359 Z"
       fill="url(#paint0_radial_29_23)"
       id="path5917"
       style="fill:url(#paint0_radial_29_23)" /></g><path
     d="M 8.3394451,8.3527873 15.63387,15.647213 11.986658,19.091802 V 4.9081976 L 15.63387,8.3527873 8.3394451,14.836721"
     fill="none"
     stroke="#ffffff"
     stroke-linecap="square"
     stroke-width="0.810492"
     id="path31666" /></svg>

<svg xmlns="http://www.w3.org/2000/svg" xml:space="preserve" width="24" height="24" version="1"><defs><radialGradient id="a" cx="0" cy="0" r="1" gradientTransform="matrix(0 22 -22 0 12 1)" gradientUnits="userSpaceOnUse"><stop stop-color="#8FC8FF"/><stop offset="1" stop-color="#0056A8"/></radialGradient></defs><g style="fill:none"><path fill="url(#a)" fill-rule="evenodd" d="M9.596 1.114c.12 0 .234-.014.344-.046a31.627 31.627 0 0 1 4.307.011c1.301.102 2.562.384 3.78.848 2.026.833 3.412 2.28 4.158 4.339.427 1.24.679 2.514.756 3.824a27.94 27.94 0 0 1-.114 4.923 11.88 11.88 0 0 1-.894 3.32c-.85 1.843-2.229 3.114-4.135 3.813a15.624 15.624 0 0 1-4.765.825 21.423 21.423 0 0 1-5.453-.413c-3.312-.737-5.354-2.756-6.128-6.056a19.047 19.047 0 0 1-.447-4.511 18.491 18.491 0 0 1 .515-4.786c.812-3.086 2.77-4.998 5.877-5.736a13.953 13.953 0 0 1 2.199-.355Z" clip-rule="evenodd" style="fill:url(#a)"/></g><path fill="none" stroke="#fff" stroke-linecap="square" stroke-width=".81" d="m8.34 8.353 7.294 7.294-3.647 3.445V4.908l3.647 3.445-7.295 6.484"/></svg>
